icons/Adobe-Light.svg

<svg width="256" height="256" title="Adobe" viewBox="0 0 256 256" fill="none" xmlns="http://www.w3.org/2000/svg" id="adobe">
<style>
#adobe {
    rect {fill: #15191C}

    @media (prefers-color-scheme: light) {
        rect {fill: #F4F2ED}
    }
}
</style>
<rect width="256" height="256" rx="40" fill="#15191C"/>
<path d="M147.5 63H203V193L147.5 63ZM108.5 63H53V193L108.5 63ZM127.945 110.881L163.332 193H140.191L129.63 166.911H103.789L127.945 110.881Z" fill="#EB1000"/>
</svg>

<?xml version="1.0" encoding="UTF-8" standalone="no"?>
<svg
   version="1.2"
   viewBox="0 0 256 256"
   width="256"
   height="256"
   id="svg2"
   sodipodi:docname="Adobe-Light.svg"
   inkscape:version="1.4.2 (ebf0e940, 2025-05-08)"
   xmlns:inkscape="http://www.inkscape.org/namespaces/inkscape"
   xmlns:sodipodi="http://sodipodi.sourceforge.net/DTD/sodipodi-0.dtd"
   xmlns="http://www.w3.org/2000/svg"
   xmlns:svg="http://www.w3.org/2000/svg">
  <defs
     id="defs2" />
  <sodipodi:namedview
     id="namedview2"
     pagecolor="#ffffff"
     bordercolor="#000000"
     borderopacity="0.25"
     inkscape:showpageshadow="2"
     inkscape:pageopacity="0.0"
     inkscape:pagecheckerboard="0"
     inkscape:deskcolor="#d1d1d1"
     inkscape:zoom="0.71178968"
     inkscape:cx="-13.346639"
     inkscape:cy="-30.908006"
     inkscape:window-width="1512"
     inkscape:window-height="949"
     inkscape:window-x="0"
     inkscape:window-y="33"
     inkscape:window-maximized="0"
     inkscape:current-layer="svg2" />
  <style
     id="style1">.a{fill:#15191c}.b{fill:#eb1000}</style>
  <path
     fill-rule="evenodd"
     class="a"
     d="m40 0h176c22.1 0 40 17.9 40 40v176c0 22.1-17.9 40-40 40h-176c-22.1 0-40-17.9-40-40v-176c0-22.1 17.9-40 40-40z"
     id="path1"
     style="fill:#f4f2ed;fill-opacity:1" />
  <path
     class="b"
     d="m147.5 63h55.5v130zm-39 0h-55.5v130zm19.4 47.9l35.4 82.1h-23.1l-10.6-26.1h-25.8z"
     id="path2" />
</svg>
